images/icons/atlassian.svg

<svg class="atlassian-header-logo" width="20" height="20" viewBox="0 0 20 20" fill="none" xmlns="http://www.w3.org/2000/svg">
<g clip-path="url(#clip0_1355_3334)">
<path d="M5.68241 8.83179C5.3938 8.51432 4.96089 8.54318 4.75886 8.91837L0.0545261 18.2982C-0.11864 18.6734 0.141109 19.1063 0.545162 19.1063H7.06774C7.26977 19.1063 7.47179 18.9908 7.55838 18.7888C9.00143 15.8739 8.1356 11.4581 5.68241 8.83179Z" fill="#1868DB"></path>
<path d="M9.11773 0.288996C6.49138 4.44497 6.66455 9.03387 8.39621 12.4972C10.1279 15.9605 11.4555 18.5868 11.5421 18.7889C11.6286 18.9909 11.8307 19.1063 12.0327 19.1063H18.5553C18.9593 19.1063 19.2479 18.6734 19.0459 18.2982C19.0459 18.2982 10.2722 0.750771 10.0413 0.317857C9.86812 -0.0861967 9.37748 -0.115058 9.11773 0.288996Z" fill="#1868DB"></path>
</g>
<defs>
<clipPath id="clip0_1355_3334">
<rect width="20" height="20" fill="white"></rect>
</clipPath>
</defs>
</svg>

<svg xmlns="http://www.w3.org/2000/svg" aria-label="Atlassian" role="img" viewBox="0 0 24 24">
  <defs>
    <clipPath id="a">
      <path fill="#fff" d="M0 0h20v20H0z"/>
    </clipPath>
  </defs>
  <g fill="#1868DB" clip-path="url(#a)" transform="matrix(1.2 0 0 1.2 1 1.003)">
    <path d="M5.682 8.832c-.288-.318-.721-.289-.923.086l-4.704 9.38c-.174.375.086.808.49.808h6.523a.53.53 0 0 0 .49-.317c1.443-2.915.578-7.33-1.876-9.957"/>
    <path d="M9.118.289C6.49 4.445 6.665 9.034 8.396 12.497c1.732 3.464 3.06 6.09 3.146 6.292a.53.53 0 0 0 .49.317h6.523c.404 0 .693-.433.49-.808 0 0-8.773-17.547-9.004-17.98-.173-.404-.664-.433-.923-.029"/>
  </g>
</svg>
